X:1
T:James Gibb editions
T:When His salvation bringing - Barnby
%%score [ ( 1 2 ) ( 3 4 ) ]
L:1/8
Q:1/4=92
M:4/4
K:A
V:1 treble nm="Midi_74"
V:2 treble 
V:3 bass nm="Midi_74"
V:4 bass 
V:1
"^John King\n(1789-1858)""^When His salvation bringing""^Joseph Barnby\n(1838-96)""^76. 76. D"!f! c2 | %1
 B2 A2 G2 A2 | (B2 c2) B2 || e2 | c2 BA B2 G2 | A6 || c2 | B2 A2 G2 A2 | (B2 c2) B2 || A2 | %10
 G2 BA G2 F2 | E6 ||[M:4/4] E2 | B3 B A2 B2 | B4 c2 || E2 | c3 c B2 c2 | d6 || d2 | f3 f e2 d2 | %20
 (c2 B2) A2 || G2 | F2 cB A2 G2 | A6 || A4 A4 |] %25
V:2
 E2 | E2 E2 E2 E2 | G4 G2 || E2 | E2 F2 F2 E2 | E6 || E2 | ^D2 F2 E2 E2 | E4 ^D2 || EF | %10
 E2 GF E2 ^D2 | E6 ||[M:4/4] E2 | G3 G F2 E2 | E4 E2 || E2 | E3 E E2 E2 | D6 || F2 | G3 G A2 E2 | %20
 (E2 G2) A2 || ^E2 | F2 F2 E2 E2 | E6 || F4 E4 |] %25
V:3
 E2 | D2 C2 B,2 C2 | (D2 C2) D2 || B,2 | C2 DC B,2 B,2- | C6 || A,2 | B,2 B,2 B,2 A,2 | %8
 (G,2 F,2) B,2 || B,2 | B,2 C2 B,2 A,2 | G,6 ||[M:4/4] E,2 | !courtesy!=D3 D D2 D2 | D4 C2 || %15
"^1 When his salvation bringing,\nto Zion Jesus came,\nthe children all stood singing\nhosanna to his name:\nnor did their zeal offend him,\nbut as he rode along,\nhe let them still attend him,\nand smiled to hear their song.\n\n2 And since the Lord retaineth\nhis love for children still,\nthough now as King he reigneth\non Zion's heav'nly hill,\nwe'll flock around his banner\nwho sits upon his throne,\nand cry aloud, \"Hosanna\nto David's royal Son!\"\n\n3 For should we fail proclaiming\nour great Redeemer's praise,\nthe stones, our silence shaming,\nwould their hosannas raise.\nBut shall we only render\nthe tribute of our words?\nNo, while our hearts are tender,\nthey too shall be the Lord's." B,2 | %16
 ^A,3 A, G,2 A,2 | B,6 || D2 | D3 D C2 B,2 | (C2 D2) C2 || B,2 | A,2 ED C2 B,2 | C6 || D4 C4 |] %25
V:4
 A,2 | A,2 A,2 A,2 A,2 | E,4 E,2 || G,2 | A,2 F,2 D,2 E,2 | A,6 || F,2 | B,2 ^D,2 E,2 C,2 | %8
 (G,,2 A,,2) B,,2 || C,^D, | E,2 A,,2 B,,2 B,,2 | E,6 ||[M:4/4] E,2 | E,3 E, F,2 G,2 | G,4 A,2 || %15
 =G,2 | F,3 F, F,2 F,2 | B,6 || B,2 | E,3 E, F,2 G,2 | (A,2 E,2) F,2 || C,2 | D,2 B,,2 E,2 E,2 | %23
 A,,6 || D,4 A,,4 |] %25

